polaris-icons/icons/new-icons/DisputeMinor.svg

<svg width="20" height="20" viewBox="0 0 20 20" fill="none" xmlns="http://www.w3.org/2000/svg">
<path d="M10 6C10.4142 6 10.75 6.33579 10.75 6.75V9.25C10.75 9.66421 10.4142 10 10 10C9.58579 10 9.25 9.66421 9.25 9.25V6.75C9.25 6.33579 9.58579 6 10 6Z" fill="#4A4A4A"/>
<path d="M10 13C10.5523 13 11 12.5523 11 12C11 11.4477 10.5523 11 10 11C9.44772 11 9 11.4477 9 12C9 12.5523 9.44772 13 10 13Z" fill="#4A4A4A"/>
<path fill-rule="evenodd" clip-rule="evenodd" d="M3.5 8.25C3.5 5.62665 5.62665 3.5 8.25 3.5H11.75C14.3734 3.5 16.5 5.62665 16.5 8.25V10.75C16.5 13.314 14.4685 15.4035 11.9274 15.4967L10.5916 17.211C10.4486 17.3945 10.2286 17.5013 9.99593 17.5C9.76329 17.4987 9.54441 17.3896 9.40343 17.2045L8.10304 15.4978C5.54768 15.4201 3.5 13.3242 3.5 10.75V8.25ZM8.25 5C6.45507 5 5 6.45507 5 8.25V10.75C5 12.5449 6.45507 14 8.25 14H8.47619C8.71026 14 8.93091 14.1093 9.07276 14.2955L10.0067 15.5212L10.9668 14.289C11.109 14.1066 11.3272 14 11.5584 14H11.75C13.5449 14 15 12.5449 15 10.75V8.25C15 6.45507 13.5449 5 11.75 5H8.25Z" fill="#4A4A4A"/>
</svg>

<svg viewBox="0 0 20 20" xmlns="http://www.w3.org/2000/svg"><path d="M10 6a.75.75 0 0 1 .75.75v2.5a.75.75 0 0 1-1.5 0v-2.5a.75.75 0 0 1 .75-.75Z" fill="#5C5F62"/><path d="M10 13a1 1 0 1 0 0-2 1 1 0 0 0 0 2Z" fill="#5C5F62"/><path fill-rule="evenodd" d="M3.5 8.25a4.75 4.75 0 0 1 4.75-4.75h3.5a4.75 4.75 0 0 1 4.75 4.75v2.5a4.75 4.75 0 0 1-4.573 4.747l-1.335 1.714a.75.75 0 0 1-1.189-.006l-1.3-1.707a4.75 4.75 0 0 1-4.603-4.748v-2.5Zm4.75-3.25a3.25 3.25 0 0 0-3.25 3.25v2.5a3.25 3.25 0 0 0 3.25 3.25h.226a.75.75 0 0 1 .597.296l.934 1.225.96-1.232a.75.75 0 0 1 .591-.289h.192a3.25 3.25 0 0 0 3.25-3.25v-2.5a3.25 3.25 0 0 0-3.25-3.25h-3.5Z" fill="#5C5F62"/></svg>
